X: 38887
T: Sunnyside, The
R: jig
M: 6/8
K: Gmajor
D|:G2B BAG|D2B BAG|E2c cGE|FAd DEF|
G2B BAG|D2B BAG|EGc FAd|1 AGF G2D:|2 AGF G2A||
|:~B2B BAG|B2g gdB|c2g gdB|~c2c ABc|
~B2B BAG|B2g gdB|~c3 A2B|1 AGF G2A:|2 AGF G2D||

